X: 4
T: Wallop The Spot
R: jig
M: 6/8
L: 1/8
K: Dmaj
|: FEF DFA | BAF dAG | FEF DFA | BAF AFE |FEF DFA | BAF d2e | f2d edB | BAF AFE: ||: Bcd eAA | fed eAA | Bcd eAA | BAF AFE |Bcd eAA | fed efg | age edB | BAF AFE :||: DFA dcd | edc dAF | DFA d2A | BAF AFE |DFA dcd | edc d2e | f2d edB | BAF AFE :|


Tune 818	Setting 24415

